src/assets/certification.svg

<svg fill="none" height="23" viewBox="0 0 25 23" width="25" xmlns="http://www.w3.org/2000/svg"><g fill="#343440"><path d="m3.125 4.68758c0-.28765.23318-.52083.52083-.52083h6.25c.28767 0 .52087.23318.52087.52083s-.2332.52083-.52087.52083h-6.25c-.28765 0-.52083-.23318-.52083-.52083z"/><path d="m3.125 14.0626c0-.2877.23318-.5209.52083-.5209h6.25c.28767 0 .52087.2332.52087.5209 0 .2876-.2332.5208-.52087.5208h-6.25c-.28765 0-.52083-.2332-.52083-.5208z"/><path d="m3.125 9.37508c0-.28765.23318-.52083.52083-.52083h3.125c.28765 0 .52084.23318.52084.52083s-.23319.52083-.52084.52083h-3.125c-.28765 0-.52083-.23318-.52083-.52083z"/><path d="m2 1h21c.5523 0 1 .44772 1 1v14.75c0 .5523-.4477 1-1 1h-3.2083v1h3.2083c1.1046 0 2-.8954 2-2v-14.75c0-1.104569-.8954-2-2-2h-21c-1.104569 0-2 .895431-2 2v14.75c0 1.1046.89543 2 2 2h11.5417v-1h-11.5417c-.55228 0-1-.4477-1-1v-14.75c0-.55228.44772-1 1-1z"/><path d="m13.5417 15.0934v6.4357c0 .893 1.0816 1.3382 1.7102.704l1.2406-1.2515c.0971-.0979.2514-.0979.3485 0l1.2406 1.2515c.6286.6342 1.7101.189 1.7101-.704v-6.4357c-.1963.0325-.4063.0066-.6053-.0923l-.3947-.1959v6.7239l-1.2405-1.2515c-.4883-.4926-1.2806-.4926-1.7689 0l-1.2406 1.2515v-6.7239l-.3946.1959c-.199.0989-.409.1248-.6054.0923z"/><path clip-rule="evenodd" d="m12.6354 8.32851-1.7954 1.04649 1.7954 1.0465c.592.345.9661.969.9915 1.6537l.0754 2.0303 2.0749-1.0303c.5603-.2783 1.2186-.2783 1.779 0l2.0749 1.0303.0753-2.0303c.0255-.6847.3996-1.3087.9915-1.6537l1.7955-1.0465-1.7955-1.04649c-.5919-.34502-.966-.96903-.9915-1.6537l-.0753-2.03036-2.0749 1.03034c-.5604.27827-1.2187.27827-1.779 0l-2.0749-1.03033-.0754 2.03035c-.0254.68467-.3995 1.30868-.9915 1.6537zm-2.299.18254c-.66188.3858-.66188 1.3421 0 1.72795l1.7955 1.0464c.2959.1726.483.4846.4957.8269l.0754 2.0304c.0269.7255.7938 1.1814 1.4441.8585l2.0748-1.0303c.2802-.1392.6094-.1392.8895 0l2.0749 1.0303c.6503.3229 1.4171-.133 1.4441-.8585l.0754-2.0304c.0127-.3423.1997-.6543.4957-.8269l1.7954-1.0464c.6619-.38585.6619-1.34215 0-1.72795l-1.7954-1.0465c-.296-.1725-.483-.48451-.4957-.82685l-.0754-2.03035c-.027-.72556-.7938-1.18147-1.4441-.85854l-2.0749 1.03033c-.2801.13914-.6093.13914-.8895 0l-2.0748-1.03033c-.6503-.32293-1.4172.13298-1.4441.85854l-.0754 2.03035c-.0127.34234-.1998.65435-.4957.82685z" fill-rule="evenodd"/></g></svg>

<svg width="25" height="23" viewBox="0 0 25 23" fill="none" xmlns="http://www.w3.org/2000/svg">
<path d="M3.125 4.68758C3.125 4.39993 3.35818 4.16675 3.64583 4.16675H9.89583C10.1835 4.16675 10.4167 4.39993 10.4167 4.68758C10.4167 4.97523 10.1835 5.20841 9.89583 5.20841H3.64583C3.35818 5.20841 3.125 4.97523 3.125 4.68758Z" fill="#343440"/>
<path d="M3.125 14.0626C3.125 13.7749 3.35818 13.5417 3.64583 13.5417H9.89583C10.1835 13.5417 10.4167 13.7749 10.4167 14.0626C10.4167 14.3502 10.1835 14.5834 9.89583 14.5834H3.64583C3.35818 14.5834 3.125 14.3502 3.125 14.0626Z" fill="#343440"/>
<path d="M3.125 9.37508C3.125 9.08743 3.35818 8.85425 3.64583 8.85425H6.77083C7.05848 8.85425 7.29167 9.08743 7.29167 9.37508C7.29167 9.66273 7.05848 9.89591 6.77083 9.89591H3.64583C3.35818 9.89591 3.125 9.66273 3.125 9.37508Z" fill="#343440"/>
<path d="M2 1H23C23.5523 1 24 1.44772 24 2V16.75C24 17.3023 23.5523 17.75 23 17.75H19.7917V18.75H23C24.1046 18.75 25 17.8546 25 16.75V2C25 0.895431 24.1046 0 23 0H2C0.895431 0 0 0.895431 0 2V16.75C0 17.8546 0.89543 18.75 2 18.75H13.5417V17.75H2C1.44772 17.75 1 17.3023 1 16.75V2C1 1.44772 1.44772 1 2 1Z" fill="#343440"/>
<path d="M13.5417 15.0934V21.5291C13.5417 22.4221 14.6233 22.8673 15.2519 22.2331L16.4925 20.9816C16.5896 20.8837 16.7439 20.8837 16.841 20.9816L18.0816 22.2331C18.7102 22.8673 19.7917 22.4221 19.7917 21.5291V15.0934C19.5954 15.1259 19.3854 15.1 19.1864 15.0011L18.7917 14.8052V21.5291L17.5512 20.2776C17.0629 19.785 16.2706 19.785 15.7823 20.2776L14.5417 21.5291V14.8052L14.1471 15.0011C13.9481 15.1 13.7381 15.1259 13.5417 15.0934Z" fill="#343440"/>
<path fill-rule="evenodd" clip-rule="evenodd" d="M12.6354 8.32851L10.84 9.375L12.6354 10.4215C13.2274 10.7665 13.6015 11.3905 13.6269 12.0752L13.7023 14.1055L15.7772 13.0752C16.3375 12.7969 16.9958 12.7969 17.5562 13.0752L19.6311 14.1055L19.7064 12.0752C19.7319 11.3905 20.106 10.7665 20.6979 10.4215L22.4934 9.375L20.6979 8.32851C20.106 7.98349 19.7319 7.35948 19.7064 6.67481L19.6311 4.64445L17.5562 5.67479C16.9958 5.95306 16.3375 5.95306 15.7772 5.67479L13.7023 4.64446L13.6269 6.67481C13.6015 7.35948 13.2274 7.98349 12.6354 8.32851ZM10.3364 8.51105C9.67452 8.89685 9.67452 9.85315 10.3364 10.239L12.1319 11.2854C12.4278 11.458 12.6149 11.77 12.6276 12.1123L12.703 14.1427C12.7299 14.8682 13.4968 15.3241 14.1471 15.0012L16.2219 13.9709C16.5021 13.8317 16.8313 13.8317 17.1114 13.9709L19.1863 15.0012C19.8366 15.3241 20.6034 14.8682 20.6304 14.1427L20.7058 12.1123C20.7185 11.77 20.9055 11.458 21.2015 11.2854L22.9969 10.239C23.6588 9.85315 23.6588 8.89685 22.9969 8.51105L21.2015 7.46455C20.9055 7.29205 20.7185 6.98004 20.7058 6.6377L20.6304 4.60735C20.6034 3.88179 19.8366 3.42588 19.1863 3.74881L17.1114 4.77914C16.8313 4.91828 16.5021 4.91828 16.2219 4.77914L14.1471 3.74881C13.4968 3.42588 12.7299 3.88179 12.703 4.60735L12.6276 6.6377C12.6149 6.98004 12.4278 7.29205 12.1319 7.46455L10.3364 8.51105Z" fill="#343440"/>
</svg>
